!!!COM:	Bach, Johann Sebastian
!!!CDT:	1685/02/21/-1750/07/28/
!!!OTL@@DE:	Nun preiset alle Gottes Barmherzigkeit
!!!SCT:	BWV 391
!!!PC#:	222
!!!AGN:	chorale
**kern	**kern	**kern	**kern
*ICvox	*ICvox	*ICvox	*ICvox
*Ibass	*Itenor	*Ialto	*Isoprn
*I"Bass	*I"Tenor	*I"Alto	*I"Soprano
*>[A,B,B]	*>[A,B,B]	*>[A,B,B]	*>[A,B,B]
*>norep[A,B]	*>norep[A,B]	*>norep[A,B]	*>norep[A,B]
*>A	*>A	*>A	*>A
*clefF4	*clefGv2	*clefG2	*clefG2
*k[f#]	*k[f#]	*k[f#]	*k[f#]
*G:	*G:	*G:	*G:
*M3/4	*M3/4	*M3/4	*M3/4
*MM100	*MM100	*MM100	*MM100
=1-	=1-	=1-	=1-
8GL	4B	4d	4g
8F#J	.	.	.
4E	4B	4e	4g
4D	4d	4f#	4a
=2	=2	=2	=2
4GG	4d	8gL	4b
.	.	8fJ	.
2C;	2c;	2e;	2g;
=3	=3	=3	=3
4.F	2c	2f	4a
.	.	.	4a
8E	.	.	.
4D	4d	4f	4b
=4	=4	=4	=4
4C	2e	2g	2cc
4E	.	.	.
4G	8dL	4g	4b
.	8fJ	.	.
=5	=5	=5	=5
2.C;	2.e;	2.g;	2.cc;
=6	=6	=6	=6
4G	4d	4g	4b
8GL	4d	4g	4b
8F#J	.	.	.
4E	4e	4g	4cc#
=7	=7	=7	=7
2D	4A	4f#	4dd
.	2d;	2f#;	2a;
4D;	.	.	.
=8	=8	=8	=8
4G	4d	4g	4b
4A	4A	4g	4cc#
4B	[4d	8f#L	4dd
.	.	8gJ	.
=9	=9	=9	=9
4F#	8dL]	4a	2dd
.	8cJ	.	.
4G	4B	8gL	.
.	.	8f#J	.
4A	4A	8gL	4cc#
.	.	8eJ	.
=10	=10	=10	=10
2.D;	2.A;	2.f#;	2.dd;
=11	=11	=11	=11
4D	4d	4f#	4a
4C	4d	4f#	4a
4BB	4d	4g#	4b
=12	=12	=12	=12
4AA	4e	4.a	4cc
4BB	4d	.	4dd
.	.	8g#L	.
[4C	8cL	8a	4ee
.	8BJ	8gJ	.
=13	=13	=13	=13
4C]	4A	4f#	2dd
4BB	4B	4g#	.
4AA	8cL	4a	4cc
.	8eJ	.	.
=14	=14	=14	=14
4D	4f	4a	2b
4E	8eL	4g#	.
.	8dJ	.	.
4AA;	4c;	4e;	4a;
=15!|:	=15!|:	=15!|:	=15!|:
*>B	*>B	*>B	*>B
4.c	4g	8eL	4.ee
.	.	8f#J	.
.	8cL	4gnX	.
8B	8dJ	.	8dd
8AL	4e	4a	4cc
8GJ	.	.	.
=16	=16	=16	=16
8F#L	2d	8aL	4.dd
8EJ	.	8gJ	.
4D	.	4f#	.
.	.	.	8cc
8GL	4d	4g	4b
8F#J	.	.	.
=17	=17	=17	=17
4E	4e	4g	4cc
4F#	4d	4a	4cc
4G	4d	4g	4b
=18	=18	=18	=18
4C	4e	4g	2a
4D	8dL	4f#	.
.	8cJ	.	.
4GG;	4B;	4d;	4g;
==:|!	==:|!	==:|!	==:|!
*-	*-	*-	*-
!!!hum2abc: -Q ''
!!!title: @{PC#}. @{OTL@@DE}
!!!YOR1: 371 vierstimmige Choralges&auml;nge von Johann Sebastian Bach, 
!!!YOR2: 4th ed. by Alfred D&ouml;rffel (Leipzig: Breitkopf und H&auml;rtel, 
!!!YOR2: c.1875). 178 pp. Plate "V.A.10".  reprint: J.S. Bach, 371 Four-Part 
!!!YOR4: Chorales (New York: Associated Music Publishers, Inc., c.1940).
!!!SMS: B&H, 4th ed, Alfred D&ouml;rffel, c.1875, plate V.A.10
!!!EED:  Craig Stuart Sapp
!!!EEV:  2009/05/22
